svg/justvector/wordpress_alt.svg

<svg xmlns="http://www.w3.org/2000/svg" viewBox="0 0 100 100" enable-background="new 0 0 100 100"><path d="m10.08 28c7.506-14 22.558-23.15 39.916-23.15 11.236 0 21.502 4.788 29.387 11.546-2.253-.436-4.713.054-7.19 1.471-5.8 3.326-7.696 12.74-.176 17.468 4.697 2.935 6.368 10.283 6.21 14.771-.155 4.495-10.917 25.14-10.917 25.14l-10.478-35.98c0 0-.361-2.524-.361-3.252 0-.918.303-2.042.869-2.684.39-.427.986-1.324 1.69-1.324h4.966v-4h-27v4h.837c.884 0 1.749 1.189 2.583 2.043.986 1.018 2.227 4.848 3.73 8.821l3.926 12.933-8.461 19.552-9.283-39.08c0 0 .274-2.678.835-3.133.366-.313.928-1.139 1.578-1.139h.255v-4h-22.916m5.293 6.791c0 0-2.184-2.791-4.502-2.791h-2.352c-2.269 5-3.523 11.715-3.523 17.869 0 18.514 11.354 34.393 27.529 41.16l-17.15-56.24m73.35-7.147c.856 4.057.679 8.979-.989 14.393-4.351 14.09-15.12 39.43-19.292 49.08 15.653-6.989 26.557-22.591 26.557-40.729 0-8.308-2.294-16.08-6.276-22.745m-37.815 38.04l-11.505 28.1c3.398.814 6.944 1.258 10.596 1.258 3.781 0 7.449-.469 10.957-1.34l-10.05-28.02" fill-rule="evenodd"/></svg>

<?xml version="1.0" encoding="iso-8859-1"?>
<!-- Generator: Adobe Illustrator 15.0.0, SVG Export Plug-In . SVG Version: 6.00 Build 0)  -->
<!DOCTYPE svg PUBLIC "-//W3C//DTD SVG 1.1//EN" "http://www.w3.org/Graphics/SVG/1.1/DTD/svg11.dtd">
<svg version="1.1" id="Icons" xmlns="http://www.w3.org/2000/svg" xmlns:xlink="http://www.w3.org/1999/xlink" x="0px" y="0px"
	 width="100px" height="100px" viewBox="0 0 100 100" style="enable-background:new 0 0 100 100;" xml:space="preserve">
<path id="WordPress__x28_alt_x29_" style="fill-rule:evenodd;clip-rule:evenodd;" d="M10.084,28C17.59,14,32.642,4.846,50,4.846
	c11.236,0,21.502,4.788,29.387,11.546c-2.253-0.436-4.713,0.054-7.19,1.471c-5.8,3.326-7.696,12.74-0.176,17.468
	c4.697,2.935,6.368,10.283,6.21,14.771c-0.155,4.495-10.917,25.138-10.917,25.138L56.836,39.26c0,0-0.361-2.524-0.361-3.252
	c0-0.918,0.303-2.042,0.869-2.684C57.734,32.897,58.33,32,59.034,32H64v-4H37v4h0.837c0.884,0,1.749,1.189,2.583,2.043
	c0.986,1.018,2.227,4.848,3.73,8.821l3.926,12.933l-8.461,19.552l-9.283-39.077c0,0,0.274-2.678,0.835-3.133
	C31.533,32.826,32.095,32,32.745,32H33v-4H10.084z M15.377,34.791c0,0-2.184-2.791-4.502-2.791H8.523C6.254,37,5,43.715,5,49.869
	c0,18.514,11.354,34.393,27.529,41.16L15.377,34.791z M88.724,27.644c0.856,4.057,0.679,8.979-0.989,14.393
	c-4.351,14.087-15.122,39.428-19.292,49.081C84.096,84.129,95,68.527,95,50.389C95,42.081,92.706,34.306,88.724,27.644z
	 M50.909,65.681L39.404,93.784c3.398,0.814,6.944,1.258,10.596,1.258c3.781,0,7.449-0.469,10.957-1.34L50.909,65.681z"/>
</svg>
